svg/fluentui-system-icons/ic_fluent_table_delete_column_16_filled.svg

<svg width="16" height="16" viewBox="0 0 16 16" fill="none" xmlns="http://www.w3.org/2000/svg">
<path d="M8 1.5C8.27614 1.5 8.5 1.72386 8.5 2V5.38195C8.47554 5.40384 8.4518 5.42652 8.42883 5.44995L8.00011 5.87867L7.56077 5.43933C7.54107 5.41963 7.52077 5.40053 7.5 5.38195V2C7.5 1.72386 7.72386 1.5 8 1.5ZM8.42797 10.5492C8.45121 10.5729 8.47523 10.5959 8.5 10.6181V14C8.5 14.2761 8.27614 14.5 8 14.5C7.72386 14.5 7.5 14.2761 7.5 14V10.6181C7.52077 10.5995 7.54102 10.5803 7.56072 10.5606L8.00011 10.1213L8.42797 10.5492ZM2.5 14C2.22386 14 2 13.7761 2 13.5V11H5V11.5C5 12.8807 3.88071 14 2.5 14ZM5 6V10H2V6H5ZM5 5V4.5C5 3.11929 3.88071 2 2.5 2C2.22386 2 2 2.22386 2 2.5V5H5ZM13.5 2C12.1193 2 11 3.11929 11 4.5V5H14V2.5C14 2.22386 13.7761 2 13.5 2ZM11 6H14V10H11V6ZM14 11H11V11.5C11 12.8807 12.1193 14 13.5 14C13.7761 14 14 13.7761 14 13.5V11ZM6.14645 6.14645C6.34171 5.95118 6.65829 5.95118 6.85355 6.14645L8 7.29289L9.14645 6.14645C9.34171 5.95118 9.65829 5.95118 9.85355 6.14645C10.0488 6.34171 10.0488 6.65829 9.85355 6.85355L8.70711 8L9.85355 9.14645C10.0488 9.34171 10.0488 9.65829 9.85355 9.85355C9.65829 10.0488 9.34171 10.0488 9.14645 9.85355L8 8.70711L6.85355 9.85355C6.65829 10.0488 6.34171 10.0488 6.14645 9.85355C5.95118 9.65829 5.95118 9.34171 6.14645 9.14645L7.29289 8L6.14645 6.85355C5.95118 6.65829 5.95118 6.34171 6.14645 6.14645Z" fill="#212121"/>
</svg>

<svg xmlns="http://www.w3.org/2000/svg" width="16" height="16"><path d="M8 1.5a.5.5 0 0 1 .5.5v3.382a1.508 1.508 0 0 0-.071.068L8 5.879l-.44-.44c-.019-.02-.04-.038-.06-.057V2a.5.5 0 0 1 .5-.5Zm.428 9.05c.023.023.047.046.072.068V14a.5.5 0 0 1-1 0v-3.382a1.52 1.52 0 0 0 .06-.057l.44-.44.428.428ZM2.5 14a.5.5 0 0 1-.5-.5V11h3v.5A2.5 2.5 0 0 1 2.5 14ZM5 6v4H2V6h3Zm0-1v-.5A2.5 2.5 0 0 0 2.5 2a.5.5 0 0 0-.5.5V5h3Zm8.5-3A2.5 2.5 0 0 0 11 4.5V5h3V2.5a.5.5 0 0 0-.5-.5ZM11 6h3v4h-3V6Zm3 5h-3v.5a2.5 2.5 0 0 0 2.5 2.5.5.5 0 0 0 .5-.5V11ZM6.146 6.146a.5.5 0 0 1 .708 0L8 7.293l1.146-1.147a.5.5 0 1 1 .708.708L8.707 8l1.147 1.146a.5.5 0 0 1-.708.708L8 8.707 6.854 9.854a.5.5 0 0 1-.708-.708L7.293 8 6.146 6.854a.5.5 0 0 1 0-.708Z"/></svg>
